img/icons/this/phone.svg

<svg width="30" height="30" viewBox="0 0 30 30" fill="none" xmlns="http://www.w3.org/2000/svg">
<path d="M6.85192 2.99085C6.74123 2.85416 6.60152 2.74165 6.44206 2.66078C6.2826 2.57991 6.10704 2.53254 5.92704 2.52182C5.74705 2.51109 5.56674 2.53726 5.39808 2.59857C5.22943 2.65989 5.07629 2.75495 4.94885 2.87745L3.01016 4.74041C2.10457 5.61158 1.77083 6.84455 2.16644 7.92633C3.8084 12.4039 6.47936 16.4691 9.9812 19.8204C13.4722 23.1822 17.7068 25.7463 22.3708 27.3227C23.4976 27.7024 24.782 27.3821 25.6895 26.5127L27.6281 24.6515C27.7557 24.5292 27.8548 24.3822 27.9186 24.2203C27.9825 24.0583 28.0098 23.8852 27.9986 23.7124C27.9874 23.5396 27.9381 23.3711 27.8538 23.218C27.7696 23.0649 27.6524 22.9308 27.51 22.8246L23.1845 19.5954C23.0324 19.4822 22.8555 19.4036 22.6671 19.3655C22.4787 19.3275 22.2838 19.331 22.0971 19.3758L17.9909 20.3604C17.4429 20.4919 16.8686 20.485 16.3242 20.3402C15.7798 20.1954 15.2836 19.9177 14.8842 19.5342L10.2793 15.1118C9.87951 14.7284 9.58994 14.2522 9.4388 13.7296C9.28765 13.2069 9.28009 12.6555 9.41684 12.1292L10.4443 8.18732C10.491 8.00804 10.4947 7.82091 10.4551 7.64007C10.4154 7.45922 10.3335 7.28938 10.2156 7.14335L6.85192 2.99085ZM3.53327 1.52028C3.86138 1.2052 4.25555 0.960732 4.68962 0.803112C5.12369 0.645491 5.58773 0.578325 6.05091 0.606074C6.51409 0.633823 6.96583 0.755851 7.37612 0.964056C7.78641 1.17226 8.14586 1.46188 8.43062 1.81368L11.7943 5.96438C12.4111 6.72576 12.6286 7.71753 12.3849 8.65351L11.3593 12.5954C11.3063 12.7996 11.3091 13.0134 11.3676 13.2162C11.4261 13.419 11.5382 13.6039 11.693 13.7528L16.2997 18.1753C16.4551 18.3242 16.6479 18.432 16.8595 18.4882C17.0711 18.5443 17.2943 18.5469 17.5072 18.4957L21.6115 17.5111C22.0926 17.3956 22.5948 17.3866 23.0801 17.4849C23.5653 17.5831 24.021 17.7859 24.4126 18.0781L28.7362 21.3072C30.2906 22.4682 30.4331 24.6731 29.0418 26.0069L27.1032 27.868C25.7157 29.2 23.642 29.785 21.709 29.1316C16.7613 27.4604 12.2691 24.7412 8.56561 21.1758C4.8519 17.6209 2.01946 13.309 0.278374 8.55991C-0.400354 6.70596 0.209001 4.71341 1.59646 3.38144L3.53515 1.52028H3.53327Z" fill="#45594F"/>
</svg>

<svg width="30" height="30" fill="none" xmlns="http://www.w3.org/2000/svg"><path d="M6.852 2.99a1.26 1.26 0 00-.41-.33 1.312 1.312 0 00-1.493.217L3.01 4.74c-.905.872-1.24 2.105-.844 3.186C3.808 12.404 6.48 16.47 9.981 19.82c3.491 3.362 7.726 5.926 12.39 7.503 1.127.38 2.411.06 3.319-.81l1.938-1.862c.128-.122.227-.269.29-.43a1.176 1.176 0 00-.064-1.003 1.232 1.232 0 00-.344-.393l-4.326-3.23a1.324 1.324 0 00-1.087-.22l-4.106.985a3.403 3.403 0 01-1.667-.02 3.305 3.305 0 01-1.44-.806l-4.605-4.422a3.11 3.11 0 01-.84-1.382 3.02 3.02 0 01-.022-1.6l1.027-3.943a1.173 1.173 0 00-.228-1.044L6.852 2.991zM3.533 1.52A3.29 3.29 0 014.69.803a3.396 3.396 0 012.686.161c.41.208.77.498 1.055.85l3.363 4.15a3.04 3.04 0 01.59 2.69l-1.025 3.941c-.053.205-.05.418.009.621.058.203.17.388.325.537l4.607 4.422c.155.15.348.257.56.313.211.056.434.059.647.008l4.104-.985a3.403 3.403 0 011.47-.026c.484.098.94.3 1.332.593l4.323 3.23c1.555 1.16 1.697 3.365.306 4.699l-1.939 1.861c-1.387 1.332-3.461 1.917-5.394 1.264-4.948-1.672-9.44-4.39-13.143-7.956C4.852 17.62 2.019 13.309.278 8.56-.4 6.706.21 4.713 1.596 3.38l1.94-1.86h-.003z" fill="#45594F"/></svg>
